**kern	**kern	**kern
*staff3	*staff2	*staff1
*tb32	*tb32	*tb32
*clefF4	*clefF4	*clefG2
*k[f#c#g#]	*k[f#c#g#]	*k[f#c#g#]
*M2/4	*M2/4	*M2/4
*A:	*A:	*A:
8GG#	8r	8bJ
=272	=272	=272
8AAL	2.r	16B#LL
.	.	16c#
8E	.	16b
.	.	16c#
8F#J	.	16a
.	.	16c#JJ
8BBL	.	16eLL
.	.	16d#
8F#	.	16a
.	.	16d#
8AJ	.	16a
.	.	16d#JJ
=273	=273	=273
8EL	2.r	16f#LL
.	.	16e
8G#	.	16d#
.	.	16e
8BJ	.	16g#
.	.	16bJJ
8e	.	8eeL
8r	.	8gg#
*clefG2	*	*
8G#	.	8bJ
=274	=274	=274
8AL	2.r	16b#LL
.	.	16cc#
8e	.	16bb
.	.	16cc#
8f#J	.	16aa
.	.	16cc#JJ
8BL	.	16eeLL
.	.	16dd#
8f#	.	16aa
.	.	16dd#
8aJ	.	16aa
.	.	16dd#JJ
=275	=275	=275
8eL	2.r	16ff#LL
.	.	16ee
8g#J	.	16gg#
.	.	16ee
8r	.	16b
.	.	16g#JJ
4r	.	8eL
.	.	8g#
*clefF4	*	*
8GG#	.	8bJ
=276	=276	=276
8AAL	2.r	16B#LL
.	.	16c#
8E	.	16b
.	.	16c#
8F#J	.	16a
.	.	16c#JJ
8BBL	.	16eLL
.	.	16d#
8F#	.	16a
.	.	16d#
8AJ	.	16a
.	.	16d#JJ
=277	=277	=277
8EL	2.r	16f#LL
.	.	16e
8G#	.	16d#
.	.	16e
8BJ	.	16g#
.	.	16bJJ
8e	.	8eeL
8r	.	8gg#
*clefG2	*	*
8G#	.	8bJ
=278	=278	=278
8AL	2.r	16b#LL
.	.	16cc#
8e	.	16bb
.	.	16cc#
8f#J	.	16aa
.	.	16cc#JJ
8BL	.	16eeLL
.	.	16dd#
8f#	.	16aa
.	.	16dd#
8aJ	.	16aa
.	.	16dd#JJ
=279	=279	=279
8BL	2.r	16ff#LL
.	.	16ee
8g#	.	16dd#
.	.	16ee
8bJ	.	16bb
.	.	16eeJJ
8BL	.	16gg#LL
.	.	16ff#
8d#	.	16ee#
.	.	16ff#
8f#J	.	16bb
.	.	16ff#JJ
=280	=280	=280
8BL	2.r	16aaLL
.	.	16gg#
8e	.	16ff#
.	.	16gg#
8g#J	.	16bb
.	.	16eeJJ
8BL	.	16eeLL
.	.	16dd#
8f#	.	16cc#
.	.	16dd#
8aJ	.	16ff#
.	.	16bJJ
=281	=281	=281
2.r;	2.r;	2.r;
*clefF4	*	*
=282	=282	=282
2.E	2.r	4.r
.	.	4.ee
=283	=283	=283
*-	*-	*-
